symbols/web/piano_off/materialsymbolsrounded/piano_off_wght300_24px.svg

<svg xmlns="http://www.w3.org/2000/svg" height="24" width="24"><path d="m19.275 21.4-.925-.925q-.05.025-.087.025H5.3q-.75 0-1.275-.525Q3.5 19.45 3.5 18.7V5.737q0-.037.025-.087l-.95-.925Q2.35 4.5 2.35 4.2q0-.3.225-.525.25-.25.55-.25.3 0 .525.25l16.7 16.675q.225.225.225.525 0 .3-.225.525-.225.225-.538.225-.312 0-.537-.225Zm1.225-3.725-1.5-1.5V5.3q0-.125-.087-.212Q18.825 5 18.7 5h-1.9v8.425q0 .1-.025.212-.025.113-.1.213L13.1 10.275V5h-2.2v3.075L6.325 3.5H18.7q.75 0 1.275.525.525.525.525 1.275ZM5.3 19h3.15v-4.65h-.325q-.4 0-.662-.263-.263-.262-.263-.662V9.35L5 7.15V18.7q0 .125.088.213.087.087.212.087Zm4.35 0h4.7v-2.5L10.875 13q-.075.35-.212.85-.138.5-.688.5H9.65Zm5.9 0h1.3l-1.3-1.325Z"/></svg>

<svg xmlns="http://www.w3.org/2000/svg" height="24" width="24"><path d="M19.275 21.4 18.35 20.475Q18.3 20.5 18.263 20.5Q18.225 20.5 18.175 20.5H5.3Q4.55 20.5 4.025 19.975Q3.5 19.45 3.5 18.7V5.825Q3.5 5.775 3.5 5.737Q3.5 5.7 3.525 5.65L2.575 4.725Q2.35 4.5 2.35 4.2Q2.35 3.9 2.575 3.675Q2.825 3.425 3.125 3.425Q3.425 3.425 3.65 3.675L20.35 20.35Q20.575 20.575 20.575 20.875Q20.575 21.175 20.35 21.4Q20.125 21.625 19.812 21.625Q19.5 21.625 19.275 21.4ZM20.5 17.675 19 16.175V5.3Q19 5.175 18.913 5.088Q18.825 5 18.7 5H16.8V13.425Q16.8 13.525 16.775 13.637Q16.75 13.75 16.675 13.85L13.1 10.275V5H10.9V8.075L6.325 3.5H18.7Q19.45 3.5 19.975 4.025Q20.5 4.55 20.5 5.3ZM5.3 19H8.45V14.35H8.125Q7.725 14.35 7.463 14.087Q7.2 13.825 7.2 13.425V9.35L5 7.15V18.7Q5 18.825 5.088 18.913Q5.175 19 5.3 19ZM9.65 19H14.35V16.5L10.875 13Q10.8 13.35 10.663 13.85Q10.525 14.35 9.975 14.35H9.65ZM15.55 19H16.85L15.55 17.675Z"/></svg>
